src/components/00-materials/images-raw/Repair 2.svg

<svg width="96" height="96" viewBox="0 0 96 96" fill="none" xmlns="http://www.w3.org/2000/svg">
<path d="M26.5 76.25C27.8807 76.25 29 75.1307 29 73.75C29 72.3693 27.8807 71.25 26.5 71.25C25.1193 71.25 24 72.3693 24 73.75C24 75.1307 25.1193 76.25 26.5 76.25Z" stroke="#00008F" stroke-width="2" stroke-linecap="round" stroke-linejoin="round"/>
<path d="M74.53 25.5798C74.5272 23.1006 73.7565 20.6831 72.324 18.6597C70.8915 16.6363 68.8674 15.1062 66.53 14.2798V22.2798H58.53V14.2798C56.3744 15.0479 54.4833 16.4164 53.0798 18.2239C51.6762 20.0314 50.8188 22.2025 50.6086 24.4813C50.3984 26.76 50.8441 29.0514 51.8933 31.0851C52.9424 33.1189 54.5513 34.8103 56.53 35.9598V46.5798H68.53V35.9998C70.3583 34.9442 71.8758 33.425 72.9293 31.5955C73.9827 29.766 74.5349 27.6909 74.53 25.5798Z" stroke="#00008F" stroke-width="2" stroke-linecap="round" stroke-linejoin="round"/>
<path d="M56.56 35.9999V46.6199H71C73 46.6199 74.65 48.3299 74.84 53.5399C74.8671 54.9173 74.4918 56.2726 73.76 57.4399C74.5666 58.2923 75.0218 59.4177 75.0348 60.5912C75.0478 61.7646 74.6175 62.8998 73.83 63.7699C73.603 64.0419 73.352 64.2929 73.08 64.5199C73.7403 65.3928 74.0781 66.4672 74.0362 67.5609C73.9943 68.6546 73.5752 69.7001 72.85 70.5199C72.6107 70.8159 72.339 71.0843 72.04 71.3199C72.3198 72.2227 72.3348 73.1868 72.0831 74.0979C71.8314 75.009 71.3236 75.8287 70.62 76.4599C69.79 77.2599 69.07 78.3499 65.95 78.3499H34M34.21 45.6799H38.33C48.12 45.6799 47.78 36.2399 47.78 36.2399V30.1099C47.7872 29.2542 48.0448 28.4194 48.5211 27.7086C48.9973 26.9977 49.6714 26.4419 50.46 26.1099M19 42.7199H34V81.7199H19V42.7199Z" stroke="#00008F" stroke-width="2" stroke-linecap="round" stroke-linejoin="round"/>
</svg>

<svg width="96" height="96" viewBox="0 0 96 96" fill="none" xmlns="http://www.w3.org/2000/svg"><path d="M26.5 76.25a2.5 2.5 0 100-5 2.5 2.5 0 000 5zM74.53 25.58a12 12 0 00-8-11.3v8h-8v-8a12 12 0 00-2 21.68v10.62h12V36a12 12 0 006-10.42z" stroke="#00008F" stroke-width="2" stroke-linecap="round" stroke-linejoin="round"/><path d="M56.56 36v10.62H71c2 0 3.65 1.71 3.84 6.92a7.08 7.08 0 01-1.08 3.9 4.66 4.66 0 01.07 6.33 5.904 5.904 0 01-.75.75 4.74 4.74 0 01-.23 6c-.24.296-.511.564-.81.8a4.94 4.94 0 01-1.42 5.14c-.83.8-1.55 1.89-4.67 1.89H34m.21-32.67h4.12c9.79 0 9.45-9.44 9.45-9.44v-6.13a4.38 4.38 0 012.68-4M19 42.72h15v39H19v-39z" stroke="#00008F" stroke-width="2" stroke-linecap="round" stroke-linejoin="round"/></svg>
